# bkboxbox.logo

# Draw two ← ↑ → ↓ square'ish boxes, concentrically, anticlockwise


clearscreen reset pendown


st
pd

setpch '↓' bk lt
setpch '→' bk lt
setpch '↑' bk lt
setpch '←' bk lt

pu lt fd rt pd

setpch '↓' bk bk lt
setpch '→' bk bk bk lt
setpch '↑' bk bk bk lt
setpch '←' bk bk bk lt
setpch '↓' bk

pu rt fd lt
setpch '*'
ht


# posted as:  https://github.com/pelavarre/byoverbs/blob/main/demos/bkboxbox.logo
# copied from:  git clone https://github.com/pelavarre/byoverbs.git
