# fdboxbox.logo

# Draw two ← ↑ → ↓ square'ish boxes, concentrically, clockwise


clearscreen reset pendown


st
pd

setpch '↑' fd rt
setpch '→' fd rt
setpch '↓' fd rt
setpch '←' fd rt

pu lt fd rt pd

setpch '↑' fd fd rt
setpch '→' fd fd fd rt
setpch '↓' fd fd fd rt
setpch '←' fd fd fd rt
setpch '↑' fd

pu rt fd lt
setpch '*'


reset tada


# posted as:  https://github.com/pelavarre/byoverbs/blob/main/demos/fdboxbox.logo
# copied from:  git clone https://github.com/pelavarre/byoverbs.git
